icons/reply-line.svg

<svg width="24" height="24" fill="none" xmlns="http://www.w3.org/2000/svg"><g clip-path="url(#a)"><path d="M11 20 1 12l10-8v5c5.523 0 10 4.477 10 10 0 .273-.01.543-.032.81a9.003 9.003 0 0 0-7.655-4.805L13 15h-2v5Zm-2-7h4.034l.347.007c1.285.043 2.524.31 3.676.766A7.984 7.984 0 0 0 11 11H9V8.161L4.202 12 9 15.839V13Z" /></g><defs><clipPath id="a"><path fill="#fff" d="M0 0h24v24H0z"/></clipPath></defs></svg>

<svg xmlns="http://www.w3.org/2000/svg" width="24" height="24" fill="none"><g clip-path="url(#a)"><g><path fill="#121212" d="M11 20L1 12L11 4V9C16.523 9 21 13.477 21 19C21 19.273 20.99 19.543 20.968 19.81C19.505 17.036 16.638 15.119 13.313 15.005L13 15H11V20ZM9 13H13.034L13.381 13.007C14.666 13.05 15.905 13.317 17.057 13.773C15.59 12.075 13.42 11 11 11H9V8.161L4.202 12L9 15.839V13Z"/></g></g><defs><clipPath id="a"><rect width="24" height="24" fill="white"/></clipPath></defs></svg>
